X:1
T:Title
%%score { 1 | 2 } { 3 | 4 } { 5 | 6 } { 7 | 8 }
L:1/8
Q:1/4=120
M:4/4
K:Bb
V:1 treble nm="S1."
V:2 treble 
V:3 treble nm="A1."
V:4 treble 
V:5 treble-8 nm="T1."
V:6 treble-8 
V:7 bass nm="B1."
V:8 bass 
V:1
"^Psalm 102, v. 1" z8 | z8 | z2 G2 G2"^Hear my prayer, O Lord" A2 | (B3 c =B2) B2 | %4
w: ||and let my|cry * * ing|
 c6"^Henry Purcell""^(1659-1695)" d2 | e2 c2 z4 | z8 | z8 | c6 c2 | c2 c2 e4 | c4 z4 | %11
w: come un-|to thee,|||hear my|pray- er, O|Lord,|
 z2 c2 c2 B2 | (A3 G _A2) A2 | (_A2 G2- G^F) G2 | (G^F) (=ED) z4 | z2 G2 G2 A2 | (B3 c =B2) B2 | %17
w: and let my|cry * * ing|come * * * un-|to * thee, *|and let my|cry * * ing|
 (c4- c=B) c2 | d8 | G8 | z8 | z8 | c6 c2 | c2 c2 e4 | c8 | z2 c2 c2 B2 | (A3 G _A2) A2 | %27
w: come * * un-|to|thee,|||hear my|pray- er, O|Lord,|and let my|cry * * ing|
 (G3 F E2) F2 | G2 G2 z2 d2 | d2 d2 (e3 f | =e2) e2 (f4- | f4 e3) d | d6 c2 | c2 c6 |] %34
w: come * * un-|\-to thee, and|let my cry *|* ing, cry|* * ing|come un-|to thee.|
"^sdfsdfsdfsdfsdf" x2 | %35
w: |
V:2
 z8 | z8 | z8 | z8 | z8 | z8 | z2 c2 c2 B2 | (A3 G _A2) G2 | (F4 E2) F2 | G2 G2 z4 | z8 | z8 | %12
w: ||||||and let my|cry * * ing|come * un-|to thee,|||
 z2 d2 d2 c2 | (=B3 A _B3) c | (B4 A3) G | G2 G6 | z8 | z8 | z8 | z8 | z8 | G6 G2 | G2 G2 _A4 | %23
w: and let my|cry * * ing|come * un-|to thee,||||||hear my|pray- er, O|
 G8 | z2 c2 c2 d2 | (e3 f =e2) e2 | (f3 e d3) c | =B2 G2 G2 A2 | (B3 c A3 B/c/) | =B2 B2 c4- | %30
w: Lord,|and let my|cry * * ing|come * * un-|to thee, let my|cry * * * *|* ing come,|
 c2 c2 d2 e2 | (=B4 c4- | c4) =B4 | c2 c6 |] x2 | %35
w: * my cry- ing|come *|* un-|to thee.||
V:3
 C6 C2 | C2 C2 E4 | C8 | z2 D2 D2 D2 | (E3 F =E2) F2 | G6 G2 | (G2 _A4) G2 | G2 F4 E2 | D2 C2 z4 | %9
w: Hear my|pray- er, O|Lord,|and let my|cry * * ing|come, my|cry * ing|come * un-|to thee,|
w: |||||||||
 z2 G2 G2 F2 | (=E3 D _E2) D2 | (D2 C4) C2 | F2 F,2 z4 | z8 | D6 D2 | D2 D2 E4 | D8 | z8 | %18
w: and let my|cry * * ing|come * un-|\-to *||hear my|pray- er, O|Lord,||
w: |||* thee,||||||
 z2 G2 G2 F2 | (=E3 D _E2) E2 | (D4 E4- | E2 D2) (D3 C) | C2 G,2 z4 | G6 G2 | G2 G2 F4 | G8 | %26
w: and let my|cry * * ing|come *|* * un *|to *|hear my|pray- er, O|Lord,|
w: ||||* thee,||||
 z4 z2 D2 | D2 D2"^___" E4 |"^___" (=E2 E2) F4- | F2 D2 G4- | G2 G2 _A4- | A2 D2 G4- | G4 F4 | %33
w: and|let my cry|* ing come,|* my cry|* ing, cry|* ing come|* un-|
w: |||||||
 E2 C6 |] x2 | %35
w: to thee.||
w: ||
V:4
 z8 | z8 | z8 | z8 | z8 | z2 C2 C2 D2 | (E3 F =E2) E2 | F6 G2 | _A2 F2 z4 | G6 G2 | G2 G2 _A4 | %11
w: |||||and let my|cry * * ing|come un-|to thee,|hear my|pray- er, O|
"^________" G8- |"^___" G2 F2 F4- | F2 F2 E4 | A,8 | z8 | z2 D2 D2 D2 | (E3 F =E2) E2 | %18
w: Lord,|* my pray|* er, O|Lord,||and let my|cry * * ing|
 (F3 !courtesy!_E D3) C | C2 C6 | z8 | z2 G2 G2 F2 | =E3 D _E2 F2 | E4 C4 | z8 | z8 | z2 C2 F4- | %27
w: come * * un-|to thee,||and let my|cry- ing come un-|to thee,|||and let|
 F2 D2"^___" G4- |"^___" G2 G2 F3 E | D2 D2 C4- | C2 C2 (C2 =B,C | D4) (E2 F2) | G6 G2 | G2 G6 |] %34
w: * my cry|* ing come un-|to thee, let|* my cry * *|* ing *|come un-|to thee.|
 x2 | %35
w: |
V:5
 z8 | z8 | z8 | G6 G2 | G2 G2 _A4 | G8 | z8 | z8 | z2 c2 c2 d2 | (e4 =B2) B2 | c6 F2 | G2 G6 | z8 | %13
w: |||Hear my|pray- er, O|Lord,|||and let my|cry * ing|come un-|to thee,||
 z8 | z8 | z2 d2 d2 c2 | (B3 A G2) G2 | (GFE)D C2 C2 | z2 G4 G2 | G2 G2 E4 | G8 | z8 | z8 | %23
w: ||and let my|cry * * ing|come * * un- to thee,|hear my|pray- er, O|Lord,|||
 z2 e2 e2 e2 | (edc=B c2) c2 | (B2 A2 G3) G | c2 c2 z4 | z8 | z2 G2 d2 d2 | (dc=BA G4- | %30
w: and let my|cry * * * * ing|come * * un-|to thee,||and let my|cry * * * *|
 G2) G2 c2 C2 | G6 A2 | (=B3 A G3) G | G2 G6 |] x2 | %35
w: * ing come, my|cry- ing|come * * un-|to thee.||
V:6
 z8 | z8 | z8 | z8 | z8 | z8 | c6 c2 | c2 c2 _A4 | c8 | z8 | z8 | z8 | d6 d2 | d2 d2 (d2 e2) | %14
w: ||||||Hear my|pray- er, O|Lord,||||hear my|pray- er, O *|
 d2 d2 d2 c2 | (=B3 A _B2) A2 | (A2 G2- GA)(GF) | E2 C2 z4 | z8 | z2 G2 G2 A2 | (B3 c =B2 c2 | %21
w: Lord, and let my|cry * * ing|come * * * un *|\-to thee,||and let my|cry * * *|
 d4) G4 | G6 F2 | G2 G2 z4 | z8 | z8 | z2 f2 f2 e2 | (d3 c =B3 A) |"^___" (G2 G2) A2 (GF) | %29
w: * ing|come un-|to thee,|||and let my|cry * * *|* ing come un *|
 G2 G2 z2 (cB) | _A2 G2 F2 f2 | d2 G2 E2 C2 | D4 G4 | G2 G6 |] x2 | %35
w: to thee, and *|let my cry- ing|come, my cry- ing|come un-|to thee.||
V:7
 z8 | z8 | z8 | z8 | C,6 C,2 | C,2 C,2 E,4 | C,8 | z8 | z8 | z8 | z2 C,2 C,2 D,2 | %11
w: ||||Hear my|pray- er, O|Lord,||||and let my|
 (E,3 F, =E,2) E,2 | F,6 F,2 | G,4 C,4 | D,6 D,2 | G,,2 G,,6 | G,6 G,2 | G,2 G,2 _A,4 | G,4 z4 | %19
w: cry * * ing|come un-|to thee,|come un-|to thee,|hear my|pray- er, O|Lord,|
 z8 | z8 | z8 | z8 | z2 C2 C2 B,2 | (A,3 G, _A,2) A,2 | G,6 G,2 | F,8 |"^_________" G,8- | %28
w: ||||and let my|cry * * ing|come un-|to|thee|
"^_____________________" G,8 | G,6 G,2 | C4 C,2 _A,2 | D,4 C,4 | G,6 G,2 | C,2 C,6 |] x2 | %35
w: |* my|cry- ing, my|cry- ing|come un-|to thee.||
V:8
 z8 | z8 | z8 | z8 | z8 | z8 | z8 |"^This edition ? Andrew Sims 2010" F,6 F,2 | F,2 F,2 _A,4 | %9
w: |||||||Hear my|pray- er, O|
 G,8 | z8 | z8 | z8 | G,6 G,2 | G,2 G,2 ^F,4 | G,8 | z8 | C,6 C,2 | C,2 C,2 =B,,4 | C,8 | %20
w: Lord,||||hear my|pray- er, O|Lord,||hear my|pray- er, O|Lord,|
 z2 G,,2 G,,2 A,,2 | (B,,3 C, =B,,2) B,,2 | C,6 D,2 | E,2 C,2 z4 | z8 | z8 | z8 | z8 | z4 z2 G,2 | %29
w: and let my|cry * * ing|come un-|to thee,|||||and|
 G,2 F,2 (E,2 D,2 | C,2) B,,2 _A,,4 | G,,8- | G,,4 G,,4 | C,2 C,6 |] x2 | %35
w: let my cry *|* ing come||* un-|to thee.||

